X:1
T:the Designing Woman
C:dance: Gary Roodman 2996
S:Colin Hume's website,  colinhume.com
S:https://calculatedfigures.com/DesigningWoman.pdf
N: Music adapted from “Vivace” from Sonata No. 6 in G Minor, RV 58, by Antonio Vivaldi.
Q:1/4=108
M:3/4
L:1/8
K:Gm
%%stretchlast no
% - - - - - - - - - -
g2 "A"||\
"Gm"g2 b2 d2 | "Cm"cBc2 "D7"a2 | "Gm"B2 AB cd | "D7"B2 A2 d2 |\
"Gm"g2 f2 "A7"=e2 | "Dm"f=e d^cd2- | "Gm"d=e "Dm"f2 "A7"e2 | "Dm"d4 g2 |
"Gm"g2 b2 d2 | "Cm"cBc2 "D7"a2 | "Gm"B2 AB cd | "D7"B2 A2 d2 |\
"Gm"g2 a2 b2 | "Cm"(3ede c'e "F"dc | "Bb"de "F7"c3 B | "Bb"B4 |]
F2 "B"||\
"Bb"B2 d2 d2 | "Gm"d2 cB cd | "Cm"e2 e2 e2 | "F7"e2 dc de |\
"Bb"f2 b2 "Gm"b2 | g2 "D7"a4 | "D7"^fg ad ac' | "Gm"b2 c'b ag |
"D7"ag ^f2 g2 | "Gm"g4 |]\
g2 "C"||\
"Gm"g2 b2 d2 | "Cm"cBc2 "D7"a2 | "Gm"B2 AB cd | "D7"B2 A2 d2 |\
"Gm"gf fe ed | "Cm"ed dc cB |
"F7"fe ed dc | "Bb"dc cB BA |\
"Cm"ed dc cB | "Cm"cB BA AG | "D7"d2 D2 ^F2 | "Gm"G4 |]
